!!!OTL: The blackbird of Mullaghmore, S. 48
!!!id: I0508
**kern
*clefG2
*k[b-]
*F:
{8cc
8b-
=1
4.a
8f
4g
4d
=2
8f
8d
2c
4A
=3
4c
4d
4.f
8g
=4
2.f}
=5
{4c
=6
4.f
8g
4a
4b-
=7
8cc
8f
2f
4f
=8
4a
4b-
4cc
8dd
8a
=9
2.cc}
=10
{8a
8b-
=11
4.cc
8cc
4dd
8cc
8a
=12
8cc
4.cc
4f
8g
8a
=13
4cc
4cc
8a
8g
4f
=14
2.d}
=15
{8cc
8b-
=16
4.a
8f
4g
4d
=17
8f
8d
2c
4A
=18
4c
4d
4.f
8g
=19
2.f}
==
*-
!!!minrhy: 8
!!!meters: 4/4 ]  ZZ[4
!!!cut: The blackbird of Mullaghmore, S. 48
!!!reg: Irland
!!!trd: O BOYLE, Sean: 25 Irish Folksongs, Dublin 1976
!!!rhy1: XX  X_.XX_X_  XXX__X_  X_X_X_.X  X__.
!!!rhy2: X_  X_.XX_X_  XXX__X_  X_X_X_XX  X__.
!!!key: I0508  08  F 4/4 ]  ZZ[4
!!!mod: SECHSTONSKALA DUR ?]  AMBITUS[11
!!!kad: 15-61
!!!akz: 321-5-5111_13513555_565153-6-6_321-5-5111_
!!!fot: 'a__b__c__a__
!!!for: 'a__b__c__a__
!!!fok: 'Vd_/__Md_Vd_
!! PHRAS[AUFTAKTIG]
!!!fkt: politisches Lied, Allegorie
!! IRISCHE VKL.
!! PR[15] 2K[5] 2G[23] 3K[8] 3G[2] 4A[3] 4Ü[0] 5A[0] 6K[0] 6G[0]
!! 7K[0] 7G[0] 8A[0] MEHR[0] SI[39] ABS[66] SR[27] SP[12]
!! ST[16] 2k[6] 2g[26] 3k[11] 3g[3] 4d[0] 4ü[0] 5d[0] 6k[0] 6g[0]
!! 7k[0] 7g[0] 8d[0] mehr[0] si[45] dm[-6] sr[32] sp[14]
!! 1F[3] 2F[33] 3F[33] 4F[6] LF[0] 2P[3] 3P[0] 4P[0] TRI[0] DF[6] AB[67]
!! TF[0] U3K[0] U3[0] U4[0] U4Ü[0] U5[0] U6K[0] U6[0] U7K[3] U7[0]
!! N1[16] N2K[0] N2[13] N3K[0] N3[0] N4[19] N4Ü[0] N5[19] N6K[0] N6[18]
!!!n7k: 9] N7[0] O1[1] O2K[0] O2[0] O3K[0] O3[0] HÖ[0
